src/icons/outline/communication/phone-ring.svg

<svg width="24" height="24" viewBox="0 0 24 24" fill="none" xmlns="http://www.w3.org/2000/svg">
<g clip-path="url(#clip0_4191_668)">
<path fill-rule="evenodd" clip-rule="evenodd" d="M5.46794 1.05558C7.1066 0.746447 8.08236 2.28408 8.73063 3.30558L8.73942 3.31827L8.82829 3.46866C9.47652 4.48004 10.2947 5.76156 9.93571 7.22355C9.74623 8.01463 9.17766 8.47536 8.71891 8.83585C8.67921 8.87073 8.63947 8.90307 8.59977 8.93546C8.55988 8.96801 8.51955 9.001 8.47965 9.03605C8.37175 9.13536 8.24745 9.22642 8.11442 9.32413L8.07048 9.35636C7.79127 9.56662 7.4721 9.80749 7.41227 10.0077C7.21558 10.7002 7.77799 11.5975 8.00309 11.9569L8.0109 11.9696C8.83859 13.2813 9.81608 14.3729 10.9728 15.3241L10.9836 15.3329C11.4236 15.6944 12.1543 16.2947 12.6984 16.1855C13.0672 16.1153 13.327 15.8456 13.7257 15.4052C14.1945 14.8945 14.7824 14.2527 15.7697 14.1025C17.3033 13.864 18.3462 14.7891 19.1125 15.4687L19.131 15.4853L19.6593 15.9452C20.4572 16.6061 21.544 17.5177 21.4543 18.8495C21.385 19.7327 20.777 20.2617 20.3293 20.6513L20.3175 20.662L20.2277 20.7421C20.0881 20.8623 19.9482 20.9928 19.8185 21.123L19.7404 21.1962C19.4754 21.4448 19.1992 21.7028 18.8908 21.9032C17.7739 22.6342 16.4474 23.0048 14.9416 23.0048L14.9523 23.0155H14.6525C13.0074 22.9654 11.721 22.3846 10.674 21.8339C8.33041 20.5822 6.56497 18.7593 5.27848 17.3173C3.46343 15.2745 2.18654 13.2016 1.48844 11.1689C0.481256 8.20486 0.950412 5.09052 2.73551 3.04777C2.97484 2.77745 3.28384 2.51705 3.59294 2.25675L4.04216 1.87589L4.06169 1.85831C4.40709 1.55096 4.83216 1.17344 5.46794 1.05558ZM5.74723 2.52726C5.51786 2.56731 5.29831 2.76765 5.04899 2.99796L4.54997 3.41788C4.29079 3.62808 4.02206 3.85877 3.86247 4.03898C2.44633 5.65118 2.07749 8.25484 2.9152 10.6581C3.55344 12.5106 4.72992 14.4031 6.4152 16.3056C7.69172 17.7375 9.27753 19.3606 11.3918 20.4921C12.3291 20.9927 13.3768 21.4628 14.7131 21.5028C16.0193 21.5528 17.1665 21.253 18.0939 20.6523C18.3232 20.5021 18.5624 20.2714 18.8117 20.0312C18.9613 19.891 19.1111 19.7504 19.2707 19.6103L19.3595 19.5302C19.7385 19.1997 19.9685 18.9895 19.9884 18.7392C20.0279 18.1839 19.3236 17.5991 18.7482 17.121L18.7316 17.1073L18.1632 16.6161C17.525 16.0454 16.8664 15.4745 16.0187 15.5946C15.5703 15.6648 15.2812 15.9554 14.8527 16.4257C14.394 16.9263 13.8752 17.4878 13.0177 17.6581C11.7803 17.9066 10.7094 17.03 10.0597 16.498L10.0451 16.4862C8.75878 15.4349 7.69218 14.2231 6.76481 12.7714C6.44568 12.2707 5.60752 10.9484 5.98649 9.59659C6.17602 8.90576 6.73481 8.48488 7.19352 8.14445C7.25273 8.09582 7.31486 8.05014 7.37516 8.00577C7.42636 7.9681 7.47693 7.93115 7.52262 7.89445C7.61232 7.8144 7.71223 7.73402 7.80192 7.66398L7.8029 7.663C8.14128 7.39319 8.42938 7.16308 8.49919 6.8632C8.70391 6.04093 8.18479 5.21851 7.67692 4.41495L7.64176 4.35929L7.49235 4.11906C6.96876 3.30229 6.49767 2.60865 5.98063 2.52531L5.87712 2.51749H5.86637C5.86021 2.51751 5.78549 2.51768 5.74723 2.52726Z" fill="#3C3B44"/>
<path d="M12.798 1.25577L12.8078 1.26554C18.4225 1.27555 22.9797 5.84172 22.9797 11.4794C22.9796 11.93 22.611 12.3007 22.1623 12.3007C21.7135 12.3007 21.3449 11.93 21.3449 11.4794C21.3349 6.743 17.5151 2.89746 12.798 2.89738C12.3492 2.89738 11.9797 2.5267 11.9797 2.07609C11.9799 1.62568 12.3494 1.25577 12.798 1.25577Z" fill="#3C3B44"/>
<path d="M12.8078 4.53019C16.6174 4.53019 19.7189 7.63441 19.7189 11.4696C19.7187 11.92 19.3501 12.2898 18.9015 12.29C18.4529 12.29 18.0834 11.9201 18.0832 11.4696C18.0832 8.54569 15.72 6.16209 12.798 6.16202L12.8078 6.17179C12.359 6.17174 11.9904 5.80109 11.9904 5.3505C11.9906 4.90012 12.3592 4.53024 12.8078 4.53019Z" fill="#3C3B44"/>
</g>
<defs>
<clipPath id="clip0_4191_668">
<rect width="24" height="24" fill="white"/>
</clipPath>
</defs>
</svg>

<svg xmlns="http://www.w3.org/2000/svg" width="24" height="24" fill="none" viewBox="0 0 24 24"><g fill="currentColor" clip-path="url(#a)"><path fill-rule="evenodd" d="M5.468 1.056c1.639-.31 2.614 1.228 3.263 2.25l.008.012.09.15c.648 1.012 1.466 2.294 1.107 3.756-.19.79-.758 1.251-1.217 1.612q-.06.052-.12.1t-.12.1c-.107.1-.232.19-.365.288l-.044.032c-.279.21-.598.451-.658.652-.196.692.366 1.59.591 1.949l.008.013a13.9 13.9 0 0 0 2.962 3.354l.01.009c.44.361 1.171.962 1.715.853.37-.07.629-.34 1.028-.78.468-.511 1.056-1.153 2.044-1.304 1.533-.238 2.576.687 3.343 1.367l.018.016.528.46c.798.661 1.885 1.573 1.795 2.904-.069.884-.677 1.413-1.125 1.802l-.012.011-.09.08c-.139.12-.279.25-.409.381l-.078.073c-.265.249-.54.507-.85.707-1.116.731-2.443 1.102-3.948 1.102l.01.01h-.3c-1.645-.05-2.931-.63-3.978-1.181-2.344-1.252-4.109-3.075-5.396-4.517-1.815-2.043-3.091-4.115-3.79-6.148C.481 8.205.95 5.09 2.736 3.048c.239-.27.548-.531.857-.791l.45-.381.019-.018c.345-.307.77-.685 1.406-.802m.28 1.471c-.23.04-.45.24-.699.471l-.499.42a6.4 6.4 0 0 0-.688.621c-1.416 1.612-1.785 4.216-.947 6.62.638 1.852 1.815 3.744 3.5 5.647 1.277 1.431 2.863 3.055 4.977 4.186.937.5 1.985.97 3.321 1.01 1.306.05 2.454-.249 3.38-.85.23-.15.47-.38.719-.62.15-.141.3-.282.459-.422l.088-.08c.38-.33.61-.54.63-.79.039-.556-.665-1.14-1.24-1.619l-.017-.014-.569-.49c-.638-.572-1.297-1.142-2.144-1.022-.449.07-.738.36-1.166.83-.459.501-.978 1.063-1.835 1.233-1.238.249-2.309-.628-2.958-1.16l-.015-.012a15.4 15.4 0 0 1-3.28-3.715c-.32-.5-1.157-1.823-.779-3.174.19-.691.749-1.112 1.208-1.453q.089-.072.181-.138.078-.057.148-.112c.09-.08.19-.16.279-.23v-.001c.34-.27.627-.5.697-.8.205-.822-.314-1.644-.822-2.448l-.035-.056-.15-.24c-.523-.817-.994-1.51-1.511-1.594l-.104-.008h-.01c-.007 0-.082 0-.12.01" clip-rule="evenodd"/><path d="m12.798 1.256.01.01c5.615.01 10.172 4.576 10.172 10.213a.824.824 0 0 1-.818.822.823.823 0 0 1-.817-.822c-.01-4.736-3.83-8.582-8.547-8.582a.824.824 0 0 1-.818-.82c0-.451.37-.821.818-.821"/><path d="M12.808 4.53c3.81 0 6.91 3.104 6.91 6.94 0 .45-.368.82-.817.82a.823.823 0 0 1-.818-.82c0-2.924-2.363-5.308-5.285-5.308l.01.01a.823.823 0 0 1-.818-.821c0-.45.37-.82.818-.82"/></g><defs><clipPath id="a"><path fill="currentColor" d="M0 0h24v24H0z"/></clipPath></defs></svg>
